static/img/pages/customers/logos/toggle.svg

<?xml version="1.0" encoding="UTF-8" standalone="no"?> <!-- Created with Vectornator for iOS (http://vectornator.io/) --><!DOCTYPE svg PUBLIC "-//W3C//DTD SVG 1.1//EN" "http://www.w3.org/Graphics/SVG/1.1/DTD/svg11.dtd">
<svg height="100%" style="fill-rule:nonzero;clip-rule:evenodd;stroke-linecap:round;stroke-linejoin:round;" xmlns:xlink="http://www.w3.org/1999/xlink" xmlns="http://www.w3.org/2000/svg" xml:space="preserve" width="100%" xmlns:vectornator="http://vectornator.io" version="1.1" viewBox="0 0 144 56">
<metadata>
<vectornator:setting key="DimensionsVisible" value="1"/>
<vectornator:setting key="PencilOnly" value="0"/>
<vectornator:setting key="SnapToPoints" value="0"/>
<vectornator:setting key="OutlineMode" value="0"/>
<vectornator:setting key="CMYKEnabledKey" value="0"/>
<vectornator:setting key="RulersVisible" value="1"/>
<vectornator:setting key="SnapToEdges" value="0"/>
<vectornator:setting key="GuidesVisible" value="1"/>
<vectornator:setting key="DisplayWhiteBackground" value="0"/>
<vectornator:setting key="doHistoryDisabled" value="0"/>
<vectornator:setting key="SnapToGuides" value="1"/>
<vectornator:setting key="TimeLapseWatermarkDisabled" value="0"/>
<vectornator:setting key="Units" value="Points"/>
<vectornator:setting key="DynamicGuides" value="0"/>
<vectornator:setting key="IsolateActiveLayer" value="0"/>
<vectornator:setting key="SnapToGrid" value="1"/>
</metadata>
<defs/>
<g id="Untitled" vectornator:layerName="Untitled">
<path d="M25.9364+22.9402L30.7984+22.9402L30.7984+20.5012L18.3602+20.5012L18.3602+22.9413L23.2222+22.9413L23.2222+35.4816L25.9364+35.4816L25.9364+22.9402M125.532+20.5012L114.445+20.5012L114.445+35.4816L125.64+35.4816L125.64+33.106L117.056+33.106L117.056+29.1039L124.57+29.1039L124.57+26.7294L117.056+26.7294L117.056+22.8768L125.532+22.8768L125.532+20.5012M101.075+35.4816L111.647+35.4816L111.647+33.106L103.707+33.106L103.707+20.5012L101.075+20.5012L101.075+35.4816M97.3429+33.4446L97.3429+27.1078L94.7437+27.1078L94.7437+32.2514C94.2428+32.6169+93.6859+32.8996+93.0947+33.0898C92.4605+33.2984+91.7801+33.4016+91.0523+33.4016C90.2655+33.4016+89.5571+33.2651+88.9229+32.992C88.3057+32.7288+87.7487+32.3425+87.2857+31.8569C86.8188+31.3631+86.458+30.7789+86.2258+30.1402C85.9736+29.4484+85.8484+28.7169+85.856+27.9806C85.8469+26.587+86.3565+25.2398+87.2857+24.2011C87.7297+23.7142+88.2532+23.325+88.8573+23.0445C89.4706+22.7625+90.1387+22.6193+90.8137+22.6252C91.2931+22.6252+91.7338+22.6639+92.1337+22.7424C92.8704+22.8776+93.5724+23.1598+94.1976+23.5723C94.5029+23.7744+94.8017+23.9969+95.092+24.2409L96.7958+22.2361C96.4152+21.9136+96.01+21.6234+95.5843+21.3633C95.1647+21.11+94.722+20.8973+94.2621+20.728C93.7699+20.5488+93.2622+20.4156+92.7454+20.3302C92.1427+20.232+91.5328+20.1849+90.9223+20.1894C89.7721+20.1894+88.7132+20.398+87.7447+20.8129C85.864+21.5969+84.3771+23.1036+83.618+24.9944C83.2299+25.9532+83.0331+26.9786+83.0386+28.0129C83.0386+29.1201+83.2278+30.1466+83.6062+31.0947C83.9684+32.0181+84.5145+32.8577+85.2121+33.5628C85.9249+34.2742+86.7759+34.8321+87.7125+35.2021C88.6874+35.5966+89.7721+35.7933+90.9663+35.7933C91.636+35.7933+92.2756+35.7331+92.8873+35.6106C94.0221+35.3896+95.1068+34.9622+96.0874+34.3497C96.5453+34.0627+96.9645+33.7606+97.3429+33.4446M79.9288+33.4446L79.9288+27.1078L77.3317+27.1078L77.3317+32.2514C76.8308+32.6169+76.274+32.8996+75.6838+33.0898C75.0496+33.2984+74.3692+33.4016+73.6414+33.4016C72.8546+33.4016+72.1451+33.2651+71.512+32.992C70.8944+32.7289+70.337+32.3426+69.8738+31.8569C69.4072+31.363+69.0469+30.7788+68.8149+30.1402C68.5624+29.4485+68.4367+28.7169+68.4441+27.9806C68.4349+26.587+68.9445+25.2398+69.8738+24.2011C70.315+23.7139+70.8498+23.3205+71.4464+23.0445C72.0591+22.7627+72.7263+22.6196+73.4007+22.6252C73.8812+22.6252+74.3208+22.6639+74.7228+22.7424C75.1216+22.8209+75.4893+22.9295+75.8247+23.066C76.16+23.2025+76.4804+23.3713+76.7857+23.5733C77.0909+23.7744+77.3908+23.9969+77.6811+24.2409L79.3849+22.2361C79.0033+21.9136+78.598+21.6234+78.1723+21.3633C77.7528+21.11+77.3101+20.8972+76.8502+20.728C76.3583+20.5488+75.8509+20.4157+75.3345+20.3302C74.7315+20.232+74.1212+20.1849+73.5103+20.1894C72.3601+20.1894+71.3013+20.398+70.3328+20.8129C69.3964+21.2084+68.5469+21.784+67.8324+22.507C67.1312+23.2211+66.5781+24.0668+66.205+24.9955C65.8173+25.954+65.6209+26.979+65.6266+28.0129C65.6266+29.1201+65.8158+30.1466+66.1942+31.0947C66.5565+32.0181+67.1025+32.8576+67.7991+33.5628C68.5121+34.2745+69.3634+34.8324+70.3005+35.2021C71.2755+35.5966+72.3601+35.7933+73.5533+35.7933C74.2241+35.7933+74.8637+35.7331+75.4753+35.6106C76.6097+35.3893+77.694+34.962+78.6743+34.3497C79.1131+34.0772+79.5326+33.7748+79.9299+33.4446M42.0413+22.7037C44.949+22.7037+47.3279+25.0901+47.3279+28.0086C47.3279+30.927+44.949+33.3145+42.0413+33.3145C39.1346+33.3145+36.7558+30.927+36.7558+28.0086C36.7558+25.0912+39.1346+22.7037+42.0413+22.7037ZM42.0413+20.2066C37.7662+20.2066+34.2694+23.7174+34.2694+28.0086C34.2694+32.2998+37.7662+35.8116+42.0413+35.8116C46.3174+35.8116+49.8153+32.2998+49.8153+28.0086C49.8153+23.7174+46.3174+20.2066+42.0413+20.2066Z" fill-rule="evenodd" fill="#ffffff" opacity="1"/>
<path d="M55.4544+20.1894L49.4562+20.1894C51.5658+22.2365+52.7546+25.0518+52.751+27.9914C52.7539+30.931+51.5647+33.7461+49.4552+35.7933L55.4534+35.7933C59.6801+35.7933+63.1382+32.2826+63.1382+27.9914C63.1382+23.7002+59.6801+20.1894+55.4544+20.1894" fill-rule="evenodd" fill="#ffa852" opacity="1"/>
</g>
</svg>

<svg xmlns:xlink="http://www.w3.org/1999/xlink" xmlns="http://www.w3.org/2000/svg" xml:space="preserve" xmlns:vectornator="http://vectornator.io" viewBox="0 0 144 56" clip-rule="evenodd" stroke-linecap="round" stroke-linejoin="round">
  <g vectornator:layerName="Untitled" fill-rule="evenodd">
    <path d="M25.936 22.94h4.862v-2.439H18.36v2.44h4.862v12.54h2.714v-12.54m99.596-2.44h-11.087v14.98h11.195v-2.375h-8.584v-4.002h7.514v-2.375h-7.514v-3.852h8.476V20.5m-24.457 14.98h10.572v-2.375h-7.94V20.501h-2.632v14.98m-3.732-2.036v-6.337h-2.6v5.143c-.5.366-1.057.649-1.648.839a6.496 6.496 0 0 1-2.043.312c-.787 0-1.495-.137-2.13-.41a4.94 4.94 0 0 1-1.636-1.135 4.97 4.97 0 0 1-1.06-1.717 6.12 6.12 0 0 1-.37-2.16c-.01-1.393.5-2.74 1.43-3.779a4.91 4.91 0 0 1 1.571-1.157 4.587 4.587 0 0 1 1.957-.419c.48 0 .92.039 1.32.117a5.575 5.575 0 0 1 2.064.83c.305.202.604.425.894.669l1.704-2.005a9.667 9.667 0 0 0-1.212-.873 7.716 7.716 0 0 0-1.322-.635 8.47 8.47 0 0 0-1.517-.398 10.84 10.84 0 0 0-1.823-.14c-1.15 0-2.209.208-3.177.623a7.597 7.597 0 0 0-4.127 4.181 7.932 7.932 0 0 0-.58 3.019c0 1.107.19 2.134.568 3.082a7.297 7.297 0 0 0 1.606 2.468 7.376 7.376 0 0 0 2.5 1.64c.975.394 2.06.59 3.254.59.67 0 1.31-.06 1.921-.182a9.45 9.45 0 0 0 3.2-1.261c.458-.287.877-.59 1.256-.905m-17.414 0v-6.337h-2.597v5.143c-.501.366-1.058.649-1.648.839a6.496 6.496 0 0 1-2.043.312c-.786 0-1.496-.137-2.129-.41a4.938 4.938 0 0 1-1.638-1.135 4.972 4.972 0 0 1-1.06-1.717 6.119 6.119 0 0 1-.37-2.16c-.01-1.393.5-2.74 1.43-3.779.441-.487.976-.88 1.572-1.157a4.586 4.586 0 0 1 1.955-.419c.48 0 .92.039 1.322.117.399.079.766.188 1.102.324.335.137.655.305.96.507.306.201.606.424.896.668l1.704-2.005a9.752 9.752 0 0 0-1.213-.873 7.704 7.704 0 0 0-1.322-.635 8.47 8.47 0 0 0-1.515-.398 10.852 10.852 0 0 0-1.825-.14c-1.15 0-2.209.208-3.177.623a7.76 7.76 0 0 0-2.5 1.694 7.59 7.59 0 0 0-1.628 2.488 7.93 7.93 0 0 0-.578 3.018c0 1.107.189 2.134.567 3.082a7.312 7.312 0 0 0 1.605 2.468 7.368 7.368 0 0 0 2.501 1.64c.975.394 2.06.59 3.253.59.671 0 1.31-.06 1.922-.182a9.456 9.456 0 0 0 3.2-1.261 11.25 11.25 0 0 0 1.255-.905M42.04 22.704c2.908 0 5.287 2.386 5.287 5.305 0 2.918-2.379 5.306-5.287 5.306-2.906 0-5.285-2.388-5.285-5.306s2.379-5.305 5.285-5.305Zm0-2.497c-4.275 0-7.772 3.51-7.772 7.802 0 4.29 3.497 7.803 7.772 7.803 4.276 0 7.774-3.512 7.774-7.803 0-4.292-3.498-7.802-7.774-7.802Z" fill="#ffffff"/>
    <path d="M55.454 20.19h-5.998a10.853 10.853 0 0 1 3.295 7.801 10.857 10.857 0 0 1-3.296 7.802h5.998c4.227 0 7.685-3.51 7.685-7.802 0-4.29-3.458-7.802-7.684-7.802" fill="#ffa852"/>
  </g>
</svg>
